build/images/icons/search.svg

<svg width="15" height="15" viewBox="0 0 15 15" fill="none" xmlns="http://www.w3.org/2000/svg">
<path d="M13.3969 11.7855C13.0283 11.4325 12.6696 11.0693 12.3211 10.6964C12.0283 10.399 11.852 10.1826 11.852 10.1826L9.64848 9.13047C10.5307 8.13003 11.0176 6.84214 11.0178 5.50834C11.0178 2.47167 8.54669 0 5.50892 0C2.47114 0 0 2.47167 0 5.50834C0 8.54501 2.47114 11.0167 5.50892 11.0167C6.89638 11.0167 8.16107 10.4973 9.13143 9.64825L10.1836 11.8516C10.1836 11.8516 10.4001 12.0279 10.6975 12.3206C11.0021 12.6062 11.4027 12.9926 11.7867 13.3963L12.8555 14.4917L13.3308 15L15 13.331L14.4916 12.8557C14.1933 12.563 13.7951 12.1742 13.3969 11.7855ZM5.50892 9.44287C3.33919 9.44287 1.57398 7.67784 1.57398 5.50834C1.57398 3.33884 3.33919 1.57381 5.50892 1.57381C7.67865 1.57381 9.44386 3.33884 9.44386 5.50834C9.44386 7.67784 7.67865 9.44287 5.50892 9.44287Z"/>
</svg>

<svg width="15" height="15" fill="none" xmlns="http://www.w3.org/2000/svg"><path d="M13.397 11.786a27.623 27.623 0 01-1.076-1.09 8.199 8.199 0 01-.469-.513L9.648 9.13c.883-1 1.37-2.288 1.37-3.622A5.515 5.515 0 005.508 0 5.515 5.515 0 000 5.508a5.515 5.515 0 005.509 5.509c1.387 0 2.652-.52 3.622-1.369l1.053 2.204s.216.176.514.469c.304.285.705.672 1.089 1.075l1.068 1.096.476.508L15 13.331l-.508-.475-1.095-1.07zM5.509 9.443a3.94 3.94 0 01-3.935-3.935 3.94 3.94 0 013.935-3.934 3.94 3.94 0 013.935 3.934 3.94 3.94 0 01-3.935 3.935z"/></svg>
